svg/l/SB.svg

<svg width="32" height="24" viewBox="0 0 32 24" fill="none" xmlns="http://www.w3.org/2000/svg">
<mask id="mask0" mask-type="alpha" maskUnits="userSpaceOnUse" x="0" y="0" width="32" height="24">
<rect width="32" height="24" fill="white"/>
</mask>
<g mask="url(#mask0)">
<path fill-rule="evenodd" clip-rule="evenodd" d="M0 0V24H32V0H0Z" fill="#3D58DB"/>
<mask id="mask1" mask-type="alpha" maskUnits="userSpaceOnUse" x="0" y="0" width="32" height="24">
<path fill-rule="evenodd" clip-rule="evenodd" d="M0 0V24H32V0H0Z" fill="white"/>
</mask>
<g mask="url(#mask1)">
<path fill-rule="evenodd" clip-rule="evenodd" d="M0 24H32V0L0 24Z" fill="#579D20"/>
<path d="M-0.781945 24.7452L-2.58569 22.2491L33.6752 -1.95435L35.479 0.541743L-0.781945 24.7452Z" fill="#FECA00"/>
<path fill-rule="evenodd" clip-rule="evenodd" d="M3.65318 6.54669L5.01675 5.60089L6.44477 6.45108L5.94461 4.92676L6.9433 3.836H5.5902L5.01675 2.23413L4.4433 3.836L3.08789 3.89195L4.08889 4.92676L3.65318 6.54669ZM9.31136 6.54669L10.6749 5.60089L12.103 6.45108L11.6028 4.92676L12.6015 3.836H11.2484L10.6749 2.23413L10.1015 3.836L8.74607 3.89195L9.74707 4.92676L9.31136 6.54669Z" fill="#F7FCFF"/>
<path fill-rule="evenodd" clip-rule="evenodd" d="M6.64789 9.45465L8.01146 8.50885L9.43948 9.35904L8.93931 7.83472L9.93801 6.74396H8.5849L8.01146 5.14209L7.43801 6.74396L6.0826 6.79991L7.0836 7.83472L6.64789 9.45465ZM5.01675 11.6009L3.65318 12.5467L4.08889 10.9268L3.08789 9.89194L4.4433 9.83599L5.01675 8.23412L5.5902 9.83599H6.9433L5.94461 10.9268L6.44477 12.4511L5.01675 11.6009ZM10.6749 11.6009L9.31136 12.5467L9.74707 10.9268L8.74607 9.89194L10.1015 9.83599L10.6749 8.23412L11.2484 9.83599H12.6015L11.6028 10.9268L12.103 12.4511L10.6749 11.6009Z" fill="#F7FCFF"/>
</g>
</g>
</svg>

<svg width="32" height="24" fill="none" xmlns="http://www.w3.org/2000/svg">
  <mask id="a" maskUnits="userSpaceOnUse" x="0" y="0" width="32" height="24">
    <path fill="#fff" d="M0 0h32v24H0z"/>
  </mask>
  <g mask="url(#a)">
    <path fill-rule="evenodd" clip-rule="evenodd" d="M0 0v24h32V0H0z" fill="#3D58DB"/>
    <mask id="b" maskUnits="userSpaceOnUse" x="0" y="0" width="32" height="24">
      <path fill-rule="evenodd" clip-rule="evenodd" d="M0 0v24h32V0H0z" fill="#fff"/>
    </mask>
    <g mask="url(#b)">
      <path fill-rule="evenodd" clip-rule="evenodd" d="M0 24h32V0L0 24z" fill="#579D20"/>
      <path d="M-.782 24.745l-1.804-2.496L33.675-1.954 35.48.542-.781 24.745z" fill="#FECA00"/>
      <path fill-rule="evenodd" clip-rule="evenodd" d="M3.653 6.547L5.017 5.6l1.428.85-.5-1.524.998-1.091H5.59l-.573-1.602-.574 1.602-1.355.056 1.001 1.035-.436 1.62zm5.658 0l1.364-.946 1.428.85-.5-1.524.999-1.091h-1.354l-.573-1.602-.573 1.602-1.356.056 1.001 1.035-.436 1.62z" fill="#F7FCFF"/>
      <path fill-rule="evenodd" clip-rule="evenodd" d="M6.648 9.455l1.364-.946 1.428.85-.5-1.524.998-1.091H8.585l-.573-1.602-.574 1.602-1.355.056 1 1.035-.435 1.62zM5.017 11.6l-1.364.946.436-1.62-1.001-1.035 1.355-.056.574-1.602.573 1.602h1.353l-.998 1.09.5 1.525-1.428-.85zm5.658 0l-1.364.946.436-1.62-1-1.035 1.355-.056.573-1.602.573 1.602h1.354l-1 1.09.501 1.525-1.428-.85z" fill="#F7FCFF"/>
    </g>
  </g>
</svg>
